src/2-landmarks/assistant--guard-ease.svg

<svg width="1300" height="1000" viewBox="0 0 1300 1000" fill="none" xmlns="http://www.w3.org/2000/svg"><g clip-path="url(#a)"><path d="M0 900h1300v100H0V900Zm872.074-430.838c0-1.662 5.902-57.128 23.43-93.162 15.049-29.175 39.06-33.545 77.179-33.98 36.977-.425 67.037 5.517 82.947 33.198 15.44 36.103 21.28 91.186 21.28 91.186l-3.81 106.336 2.14 32.258c.82 12.226-10.68 21.6-22.49 18.345a2.236 2.236 0 0 1-1.57-1.595l-5.68-22.248 8 118.5-1.5 156 15.6 6.406a19.988 19.988 0 0 1 12.4 18.5V900h-93.496l1.5-18a9.97 9.97 0 0 1-4.439-8.408L985.004 746l-9.5-125-9 125v128c0 3.147-1.482 6.111-4 8l1.5 18H872a19.734 19.734 0 0 1 11.301-17.842l16.203-7.658-2-156.5 6.5-118.5-5.869 22.986a.919.919 0 0 1-.642.657c-12.056 3.375-23.881-6.04-23.292-18.546l1.519-32.228s-3.646-59.369-3.646-103.207Z" fill="#000"/><path d="M878.07 472.47s5.44-56.684 21.98-91.955c14.201-28.558 36.989-32.07 72.96-32.495 34.89-.417 63.26 5.4 78.27 32.495 14.57 35.339 20.08 89.255 20.08 89.255l-3.59 104.085 1.44 31.419c.3 6.699-5.03 12.309-11.73 12.349a1.48 1.48 0 0 1-1.45-1.132l-10.31-42.999-10.18-105.412-6.89-48.962a1.263 1.263 0 0 0-1.26-1.098c-.75 0-1.33.64-1.27 1.386L1032 487.5l3 30.5 3 55.855 9.5 143.152-1.5 161.008 21.22 9.112a10.017 10.017 0 0 1 6.05 9.021l.06 3.852H992.5l2.09-22.01a5.004 5.004 0 0 1-5.033-5.05l1.198-128.82-12.532-147.284a2.86 2.86 0 0 0-5.698.01L960.49 744.135l-.242 129.575a4.319 4.319 0 0 1-4.348 4.31l1.991 21.98H878c0-5.192 2.968-9.927 7.641-12.19l20.179-9.77-2.16-161.02L911 573.5l2.5-55.5 3-30 5.395-68.665a1.228 1.228 0 0 0-2.442-.253l-6.463 50.008-9.49 104.402-10.216 43.652a.63.63 0 0 1-.613.486c-7.175 0-12.898-5.99-12.572-13.158l1.411-30.98-3.45-101.022h.01Z" fill="#fff"/><path d="M1005.13 261.625c2.01 2.433 3.61 5.124 4.95 8.053 2.01 4.384 2.92 8.615 2.92 13.398 0 1.804-.2 3.959-.49 5.742l-4.86 23.834a25.042 25.042 0 0 1-1.01 3.616c-1.04 2.794-3.21 8.178-5.32 10.83-2.921 3.676-7.163 6.929-11.671 8.613-3.769 1.407-10.807 1.909-12.649 1.914 0 0-8.301-.07-13.135-1.914-5.448-2.079-8.483-4.109-12.162-8.575-2.49-3.022-4.438-8.223-5.322-10.854-.362-1.078-.611-2.188-.801-3.309l-4.093-24.155s-.495-3.492-.487-5.742c.02-5.351.746-8.492 2.919-13.398 1.508-3.405 2.889-5.74 4.887-8.053h56.324Z" fill="#000"/><path d="M987.189 329.387c-3.036 1.186-8.705 1.609-10.189 1.613 0 0-6.687-.059-10.581-1.613-4.389-1.752-6.834-3.463-9.797-7.226-1.948-2.474-3.485-6.681-4.224-8.951-.338-1.039-.567-2.106-.741-3.184l-3.265-20.155s-.399-2.943-.392-4.839c.016-4.509.601-7.157 2.351-11.291 1.799-4.245 3.371-6.518 6.663-9.677 3.508-3.368 6.037-4.839 10.581-6.426 3.527-1.232 5.68-1.607 9.405-1.638 3.998.141 5.487.403 9.302 1.638 3.819 1.33 7.718 3.686 10.685 6.426 2.966 2.74 5.043 5.984 6.663 9.678 1.62 3.693 2.35 7.259 2.35 11.29 0 1.52-.16 3.336-.39 4.839l-3.88 19.862a24.563 24.563 0 0 1-.93 3.486c-.868 2.406-2.556 6.741-4.205 8.91-2.357 3.097-5.774 5.839-9.406 7.258Z" fill="#fff"/><path d="M942.998 264.625H1009c0 9.388-7.61 17-17.002 17h-32c-9.389 0-17-7.612-17-17Z" fill="#000"/><path d="M950.998 268.625H1001c0 3.313-2.688 6-6.002 6h-38a6 6 0 0 1-6-6Z" fill="#fff"/><path d="m1008 268.625 4.82-17.679c.67-2.46-.62-5.03-2.99-5.966l-31.996-12.631a5.007 5.007 0 0 0-3.672 0l-31.997 12.631a4.999 4.999 0 0 0-2.988 5.966l4.821 17.679H1008Z" fill="#000"/><path d="m1003 261.625 3-11-30.002-11-30 11 3 11H1003Z" fill="#fff"/></g><defs><clipPath id="a"><path fill="#fff" d="M0 0h1300v1000H0z"/></clipPath></defs></svg>

<svg width="1300" height="1000" viewBox="0 0 1300 1000" fill="none" xmlns="http://www.w3.org/2000/svg">
<path d="M0 900H1300V1000H0V900Z" fill="black"/>
<path d="M872.074 469.162C872.074 467.5 877.976 412.035 895.504 376C910.553 346.825 934.564 342.455 972.683 342.021C1009.66 341.595 1039.72 347.537 1055.63 375.218C1071.07 411.322 1076.91 466.404 1076.91 466.404L1073.1 572.74L1075.24 604.998C1076.06 617.225 1064.56 626.599 1052.75 623.343C1051.98 623.131 1051.38 622.522 1051.18 621.748L1045.5 599.5L1053.5 718L1052 874L1067.6 880.406C1075.11 883.488 1080 890.796 1080 898.907V900H986.504L988.004 882C985.197 880.129 983.527 876.965 983.565 873.592L985.004 746L975.504 621L966.504 746V874C966.504 877.148 965.022 880.111 962.504 882L964.004 900H872C872 892.368 876.401 885.42 883.301 882.158L899.504 874.5L897.504 718L904.004 599.5L898.135 622.486C898.054 622.804 897.809 623.055 897.493 623.143C885.437 626.519 873.612 617.103 874.201 604.597L875.72 572.37C875.72 572.37 872.074 513 872.074 469.162Z" fill="black"/>
<path d="M878.07 472.47C878.07 472.47 883.51 415.787 900.05 380.515C914.251 351.958 937.039 348.445 973.01 348.02C1007.9 347.604 1036.27 353.42 1051.28 380.515C1065.85 415.854 1071.36 469.77 1071.36 469.77L1067.77 573.855L1069.21 605.274C1069.51 611.974 1064.18 617.584 1057.48 617.623C1056.79 617.627 1056.19 617.159 1056.03 616.492L1045.72 573.493L1035.54 468.08L1028.65 419.119C1028.57 418.489 1028.03 418.02 1027.39 418.02C1026.64 418.02 1026.06 418.661 1026.12 419.406L1032 487.5L1035 518L1038 573.855L1047.5 717.008L1046 878.015L1067.22 887.127C1070.83 888.681 1073.2 892.212 1073.27 896.149L1073.33 900H992.5L994.59 877.99C991.797 878.007 989.531 875.733 989.557 872.94L990.755 744.12L978.223 596.836C978.097 595.357 976.859 594.22 975.374 594.22C973.886 594.22 972.647 595.363 972.525 596.846L960.49 744.135L960.248 873.71C960.244 876.104 958.293 878.037 955.9 878.02L957.891 900H878C878 894.808 880.968 890.073 885.641 887.811L905.82 878.04L903.66 717.02L911 573.5L913.5 518L916.5 488L921.895 419.336C921.952 418.617 921.381 418.005 920.66 418.011C920.047 418.016 919.531 418.474 919.453 419.082L912.99 469.09L903.5 573.493L893.284 617.144C893.217 617.429 892.963 617.63 892.671 617.63C885.496 617.63 879.773 611.641 880.099 604.473L881.51 573.493L878.06 472.47H878.07Z" fill="white"/>
<path d="M986.189 329.387C983.153 330.573 977.484 330.996 976 331C976 331 969.313 330.942 965.419 329.387C961.03 327.635 958.585 325.925 955.622 322.161C953.673 319.687 952.137 315.481 951.398 313.21C951.06 312.171 950.831 311.105 950.657 310.026L947.392 289.871C947.392 289.871 946.993 286.928 947 285.032C947.016 280.523 947.601 277.876 949.351 273.742C951.15 269.496 952.722 267.224 956.014 264.065C959.522 260.697 962.051 259.226 966.595 257.639C970.122 256.407 972.275 256.032 976 256C979.998 256.141 981.487 256.403 985.302 257.639C989.121 258.968 993.02 261.324 995.986 264.065C998.953 266.805 1001.03 270.048 1002.65 273.742C1004.27 277.436 1005 281.002 1005 285.032C1005 286.552 1004.84 288.369 1004.61 289.871L1000.73 309.733C1000.5 310.917 1000.2 312.084 999.797 313.219C998.932 315.626 997.244 319.961 995.595 322.129C993.238 325.227 989.821 327.968 986.189 329.387Z" fill="white"/>
<path fill-rule="evenodd" clip-rule="evenodd" d="M976 330.625C977.484 330.621 983.153 330.198 986.189 329.012C989.821 327.593 993.238 324.852 995.595 321.754C997.244 319.586 998.932 315.251 999.797 312.844C1000.2 311.709 1000.5 310.542 1000.73 309.358L1004.61 289.496C1004.84 287.993 1005 286.177 1005 284.657C1005 280.627 1004.27 277.061 1002.65 273.367C1001.03 269.673 998.953 266.43 995.986 263.689C995.209 262.971 994.367 262.279 993.479 261.625H1004.13C1006.14 264.058 1007.74 266.749 1009.08 269.679C1011.09 274.062 1012 278.294 1012 283.077C1012 284.88 1011.8 287.036 1011.51 288.819L1006.65 312.652C1006.4 313.881 1006.07 315.093 1005.64 316.269C1004.6 319.062 1002.43 324.446 1000.32 327.098C997.399 330.774 993.157 334.027 988.649 335.711C984.88 337.119 977.842 337.621 976 337.625C976 337.625 967.699 337.556 962.865 335.711C957.417 333.632 954.382 331.602 950.703 327.136C948.213 324.114 946.265 318.913 945.381 316.283C945.019 315.204 944.77 314.095 944.58 312.973L940.487 288.819C940.487 288.819 939.992 285.327 940 283.077C940.02 277.726 940.746 274.584 942.919 269.679C944.427 266.274 945.808 263.938 947.806 261.625H958.337C957.59 262.228 956.828 262.907 956.014 263.689C952.722 266.849 951.15 269.121 949.351 273.367C947.601 277.501 947.016 280.148 947 284.657C946.993 286.553 947.392 289.496 947.392 289.496L950.657 309.651C950.831 310.73 951.06 311.796 951.398 312.835C952.137 315.106 953.673 319.312 955.622 321.786C958.585 325.55 961.03 327.26 965.419 329.012C969.313 330.566 976 330.625 976 330.625Z" fill="black"/>
<path fill-rule="evenodd" clip-rule="evenodd" d="M943.002 264.97C943.185 274.2 950.725 281.625 959.998 281.625H991.998C1001.27 281.625 1008.81 274.2 1008.99 264.971L1012.82 250.946C1013.49 248.486 1012.2 245.916 1009.83 244.98L977.834 232.349C976.655 231.884 975.342 231.884 974.163 232.349L942.165 244.98C939.794 245.916 938.506 248.486 939.177 250.946L943.002 264.97ZM950.998 268.625H1001C1001 271.939 998.312 274.625 994.998 274.625H956.998C953.685 274.625 950.998 271.939 950.998 268.625Z" fill="black"/>
<path d="M1003 261.625L1006 250.625L975.998 239.625L945.998 250.625L948.998 261.625H1003Z" fill="white"/>
</svg>
